**kern	**kern	**dynam
*part1	*part1	*part1
*staff2	*staff1	*
*I"Piano	*	*
*clefF4	*clefG2	*
*k[f#c#g#d#a#e#]	*k[f#c#g#d#a#e#]	*
=1	=1	=1
(8.F#L 8.c#	(8.f#L 8.a#	p <
16G#K 16c#	16f#K 16b	.
8A#J 8c#	8f#J 8cc#	.
=	=	=
4B 4c#	4f# 4dd# 4ff#	[ >
8A#) 8c#	8f#) 8cc#	.
=	=	=
(8.B:L 8.d#:	(8.f#:L 8.dd#: 8.ff#:	]
16A#K 16c#	16f#K 16a# 16cc#	.
8BJ 8d#	8f#J 8b 8dd#	.
=	=	=
4A# 4c#	4f# 4cc#	.
8F#) 8c#	8f#) 8a#	.
=	=	=
*	*^	*
!	!LO:TX:a:i:t=il canto marc.	!	!
4.D#	8.re	(4.A#	.
.	16d#KL 16f#	.	.
.	8d#J 8f#	.	.
=	=	=	=
4.GG#	8.re	4.d#	.
.	16f#KL 16b	.	.
.	8f#J 8b	.	.
=	=	=	=
4.C#	8.re	4c#	.
.	16e#KL 16g#	.	.
.	8e#J 8g#	8B)	.
*	*v	*v	*
=	=	=
*-	*-	*-
!!!system-decoration: {(s1,s2)}
